packages/ui/public/icons/post-pinned-inactive.svg

<svg width="24" height="24" viewBox="0 0 24 24" fill="none" xmlns="http://www.w3.org/2000/svg">
<path opacity="0.4" d="M8.37658 15.6162L2.71973 21.2731" stroke="#868487" stroke-width="2" stroke-linecap="round" stroke-linejoin="round"/>
<path d="M13.1024 3.64624C13.4143 2.91854 13.5703 2.55469 13.8222 2.38941C14.0426 2.24488 14.3111 2.19317 14.5694 2.24553C14.8647 2.3054 15.1446 2.58531 15.7044 3.14514L20.8476 8.28827C21.4074 8.8481 21.6873 9.12801 21.7472 9.42336C21.7996 9.68163 21.7478 9.95013 21.6033 10.1705C21.438 10.4225 21.0742 10.5784 20.3465 10.8903L17.8521 11.9593C17.7463 12.0047 17.6934 12.0273 17.6438 12.0557C17.5997 12.0809 17.5576 12.1094 17.5179 12.1409C17.4731 12.1765 17.4324 12.2172 17.351 12.2986L15.7901 13.8595C15.6628 13.9868 15.5992 14.0504 15.5486 14.123C15.5037 14.1874 15.4665 14.2568 15.4378 14.3299C15.4056 14.4122 15.3879 14.5005 15.3526 14.677L14.6197 18.3415C14.4292 19.2938 14.334 19.77 14.0829 19.9927C13.8642 20.1868 13.5715 20.2754 13.2819 20.2353C12.9495 20.1892 12.6061 19.8458 11.9194 19.1591L4.83369 12.0734C4.14698 11.3866 3.80362 11.0433 3.75753 10.7108C3.71738 10.4212 3.806 10.1285 4.00006 9.90978C4.22282 9.65872 4.69897 9.56349 5.65128 9.37303L9.31574 8.64014C9.49231 8.60483 9.58059 8.58717 9.66291 8.55488C9.73599 8.52622 9.80543 8.48905 9.86981 8.44415C9.94234 8.39357 10.006 8.32991 10.1333 8.20258L11.6942 6.64169C11.7756 6.56029 11.8163 6.51959 11.8518 6.47484C11.8834 6.4351 11.9119 6.39301 11.9371 6.34893C11.9654 6.29932 11.9881 6.24641 12.0334 6.14059L13.1024 3.64624Z" stroke="#868487" stroke-width="2" stroke-linecap="round" stroke-linejoin="round"/>
</svg>

<svg width="24" height="24" fill="none" xmlns="http://www.w3.org/2000/svg"><path opacity=".4" d="M8.377 15.616 2.72 21.273" stroke="#868487" stroke-width="2" stroke-linecap="round" stroke-linejoin="round"/><path d="M13.102 3.646c.312-.727.468-1.091.72-1.257a1 1 0 0 1 .747-.143c.296.06.576.34 1.135.9l5.144 5.142c.56.56.84.84.9 1.135a1 1 0 0 1-.145.748c-.165.252-.529.407-1.257.72l-2.494 1.068c-.106.046-.159.068-.208.097a1.004 1.004 0 0 0-.126.085c-.045.036-.086.076-.167.158l-1.56 1.56c-.128.128-.192.191-.242.264a1.002 1.002 0 0 0-.111.207c-.032.082-.05.17-.085.347l-.733 3.665c-.19.952-.286 1.428-.537 1.65a1 1 0 0 1-.801.243c-.332-.046-.676-.39-1.363-1.076l-7.085-7.086c-.687-.686-1.03-1.03-1.076-1.362A1 1 0 0 1 4 9.91c.223-.251.699-.347 1.651-.537l3.665-.733c.176-.035.265-.053.347-.085a1 1 0 0 0 .207-.11 2.1 2.1 0 0 0 .263-.242l1.561-1.561c.082-.082.122-.122.158-.167a.998.998 0 0 0 .085-.126c.028-.05.051-.103.096-.208l1.07-2.495Z" stroke="#868487" stroke-width="2" stroke-linecap="round" stroke-linejoin="round"/></svg>
